**kern	**silbe	**kern	**silbe	**kern	**silbe	**harmony	**phrase	**leadinstrument	**rhyme	**timestamp	**harte
*ICvox	*	*ICvox	*	*ICvox	*	*M4/4	*	*	*	*	*M4/4
*VRlead*VRharmonize*VRbacking	*	*VRharmonize*VRbacking	*	*VRharmonize*VRbacking	*	*	*	*	*	*	*
*Hstimme	*	*Nstimme	*	*Nstimme	*	*	*	*	*	*	*
*C:	*	*C:	*	*C:	*	*C:	*	*	*	*	*C:
*M4/4	*	*M4/4	*	*M4/4	*	*	*	*	*	*	*
*clefG2	*	*clefG2	*	*clefG2	*	*	*	*	*	*	*
r;	.	r;	.	r;	.	1r	.	r	.	0	N.C.
=1	=1	=1	=1	=1	=1	=1	=1	=1	=1	=1	=1
*>Letter>A	*>Letter>A	*>Letter>A	*>Letter>A	*>Letter>A	*>Letter>A	*>Letter>A	*>Letter>A	*>Letter>A	*>Letter>A	*>Letter>A	*>Letter>A
*>Label>Intro	*>Label>Intro	*>Label>Intro	*>Label>Intro	*>Label>Intro	*>Label>Intro	*>Label>Intro	*>Label>Intro	*>Label>Intro	*>Label>Intro	*>Label>Intro	*>Label>Intro
[4g	Doo	[4e	Doo	1r	.	1CM	newline	voice	.	0.325	C:maj
8g]	_	8e]	_	.	.	.	.	.	.	.	.
8e	doo	8c	doo	.	.	.	.	.	.	.	.
8g	doo	8e	doo	.	.	.	.	.	.	.	.
8cc	doo	8e	doo	.	.	.	.	.	.	.	.
8r	.	8r	.	.	.	.	.	.	.	.	.
8dd	doo	8f	doo	.	.	.	.	.	.	.	.
=2	=2	=2	=2	=2	=2	=2	=2	=2	=2	=2	=2
8r	.	8r	.	1r	.	1GMm	.	voice	.	2.343	G:7
8dd	doo	8f	doo	.	.	.	.	.	.	.	.
8r	.	8r	.	.	.	.	.	.	.	.	.
8cc	doo	8f	doo	.	.	.	.	.	.	.	.
4b	doo	4g	doo	.	.	.	.	.	.	.	.
8.a	doo	8.f	doo	.	.	.	.	.	.	.	.
16r	.	16r	.	.	.	.	.	.	.	.	.
=3	=3	=3	=3	=3	=3	=3	=3	=3	=3	=3	=3
[4g	doo	[4e	doo	1r	.	1CM	.	voice	.	4.361	C:maj
8g]	_	8e]	_	.	.	.	.	.	.	.	.
8e	doo	8c	doo	.	.	.	.	.	.	.	.
8g	doo	8e	doo	.	.	.	.	.	.	.	.
8cc	doo	8e	doo	.	.	.	.	.	.	.	.
8r	.	8r	.	.	.	.	.	.	.	.	.
8dd	doo	8f	doo	.	.	.	.	.	.	.	.
=4	=4	=4	=4	=4	=4	=4	=4	=4	=4	=4	=4
8r	.	8r	.	1r	.	1GMm	.	voice	.	6.38	G:7
8dd	doo	8f	doo	.	.	.	.	.	.	.	.
8r	.	8r	.	.	.	.	.	.	.	.	.
8cc	doo	8f	doo	.	.	.	.	.	.	.	.
4b	doo	4g	doo	.	.	.	.	.	.	.	.
8.a	doo	8.f	doo	.	.	.	.	.	.	.	.
16r	.	16r	.	.	.	.	.	.	.	.	.
=5	=5	=5	=5	=5	=5	=5	=5	=5	=5	=5	=5
4r	.	[4g	Doo	[4e	Doo	1CM	newline	voice	.	8.398	C:maj
4g	Hey	8g]	_	8e]	_	.	.	.	.	.	.
.	.	8e	doo	8c	doo	.	.	.	.	.	.
8cc	Carr-	8g	doo	8e	doo	.	.	.	.	.	.
4g	-ie	8cc	doo	8e	doo	.	.	.	.	.	.
.	.	8r	.	8r	.	.	.	.	.	.	.
[8b	Anne	8dd	doo	8f	doo	.	.	.	.	.	.
=6	=6	=6	=6	=6	=6	=6	=6	=6	=6	=6	=6
8b]	_	8r	.	8r	.	1GMm	.	voice	.	10.37	G:7
4a	_	8dd	doo	8f	doo	.	.	.	.	.	.
.	.	8r	.	8r	.	.	.	.	.	.	.
4g	_	8cc	doo	8f	doo	.	.	.	.	.	.
.	.	4b	doo	4g	doo	.	.	.	.	.	.
4.a	_	.	.	.	.	.	.	.	.	.	.
.	.	8.a	doo	8.f	doo	.	.	.	.	.	.
.	.	16r	.	16r	.	.	.	.	.	.	.
=7	=7	=7	=7	=7	=7	=7	=7	=7	=7	=7	=7
4r	.	[4g	doo	[4e	doo	1CM	.	voice	.	12.343	C:maj
4g	Hey	8g]	_	8e]	_	.	.	.	.	.	.
.	.	8e	doo	8c	doo	.	.	.	.	.	.
8cc	Carr-	8g	doo	8e	doo	.	.	.	.	.	.
4g	-ie	8cc	doo	8e	doo	.	.	.	.	.	.
.	.	8r	.	8r	.	.	.	.	.	.	.
[8b	Anne	8dd	doo	8f	doo	.	.	.	.	.	.
=8	=8	=8	=8	=8	=8	=8	=8	=8	=8	=8	=8
8b]	_	8r	.	8r	.	1GMm	.	voice	.	14.316	G:7
4a	_	8dd	doo	8f	doo	.	.	.	.	.	.
.	.	8r	.	8r	.	.	.	.	.	.	.
4g	_	8cc	doo	8f	doo	.	.	.	.	.	.
.	.	4b	doo	4g	doo	.	.	.	.	.	.
4.a	_	.	.	.	.	.	.	.	.	.	.
.	.	8.a	doo	8.f	doo	.	.	.	.	.	.
.	.	16r	.	16r	.	.	.	.	.	.	.
=9	=9	=9	=9	=9	=9	=9	=9	=9	=9	=9	=9
*>Letter>B	*>Letter>B	*>Letter>B	*>Letter>B	*>Letter>B	*>Letter>B	*>Letter>B	*>Letter>B	*>Letter>B	*>Letter>B	*>Letter>B	*>Letter>B
*>Label>Verse	*>Label>Verse	*>Label>Verse	*>Label>Verse	*>Label>Verse	*>Label>Verse	*>Label>Verse	*>Label>Verse	*>Label>Verse	*>Label>Verse	*>Label>Verse	*>Label>Verse
8g	When	1r	.	1r	.	2CM	newline	voice	.	16.289	C:maj
8g	we	.	.	.	.	.	.	.	.	.	.
8f	were	.	.	.	.	.	.	.	.	.	.
8e	at	.	.	.	.	.	.	.	.	.	.
4d	school	.	.	.	.	2FM	.	voice	.	17.275	F:maj
4c	our	.	.	.	.	.	.	.	.	.	.
=10	=10	=10	=10	=10	=10	=10	=10	=10	=10	=10	=10
4G	games	1r	.	1r	.	2CM	.	voice	.	18.262	C:maj
4c	were	.	.	.	.	.	.	.	.	.	.
4A	sim-	.	.	.	.	2FM	.	voice	.	19.248	F:maj
8c	-ple	.	.	.	.	.	.	.	.	.	.
8r	.	.	.	.	.	.	.	.	.	.	.
=11	=11	=11	=11	=11	=11	=11	=11	=11	=11	=11	=11
4G	I	1r	.	1r	.	2CM	.	voice	.	20.235	C:maj
8A	played	.	.	.	.	.	.	.	.	.	.
8c	a	.	.	.	.	.	.	.	.	.	.
8e	jan-	.	.	.	.	2FM	.	voice	.	21.221	F:maj
8e	-i-	.	.	.	.	.	.	.	(a	.	.
8d	-tor	.	.	.	.	.	.	.	A)	.	.
8r	.	.	.	.	.	.	.	.	.	.	.
=12	=12	=12	=12	=12	=12	=12	=12	=12	=12	=12	=12
4G	you	1r	.	1r	.	2CM	.	voice	.	22.208	C:maj
8A	played	.	.	.	.	.	.	.	.	.	.
8c	a	.	.	.	.	.	.	.	.	.	.
8A	mon-	.	.	.	.	2FM	.	voice	.	23.195	F:maj
8A	-i-	.	.	.	.	.	.	.	(a	.	.
8G	-tor	.	.	.	.	.	.	.	A)	.	.
8r	.	.	.	.	.	.	.	.	.	.	.
=13	=13	=13	=13	=13	=13	=13	=13	=13	=13	=13	=13
8g	Then	1r	.	1r	.	2CM	newline	voice	.	24.181	C:maj
8g	you	.	.	.	.	.	.	.	.	.	.
8f	played	.	.	.	.	.	.	.	.	.	.
8e	with	.	.	.	.	.	.	.	.	.	.
4d	old-	.	.	.	.	2FM	.	voice	.	25.171	F:maj
4c	-er	.	.	.	.	.	.	.	.	.	.
=14	=14	=14	=14	=14	=14	=14	=14	=14	=14	=14	=14
4G	boys	1r	.	1r	.	2CM	.	voice	.	26.162	C:maj
4c	and	.	.	.	.	.	.	.	.	.	.
4A	pre-	.	.	.	.	2FM	.	voice	.	27.152	F:maj
8c	-fects	.	.	.	.	.	.	.	.	.	.
8r	.	.	.	.	.	.	.	.	.	.	.
=15	=15	=15	=15	=15	=15	=15	=15	=15	=15	=15	=15
4G	what's	1r	.	1r	.	2CM	.	voice	.	28.142	C:maj
8A	the	.	.	.	.	.	.	.	.	.	.
8c	a-	.	.	.	.	.	.	.	.	.	.
4e	-ttrac-	.	.	.	.	2FM	.	voice	.	29.132	F:maj
8d	-tion	.	.	.	.	.	.	.	.	.	.
8d	in	.	.	.	.	.	.	.	.	.	.
=16	=16	=16	=16	=16	=16	=16	=16	=16	=16	=16	=16
4c	what	1r	.	1r	.	1GM	.	voice	.	30.122	G:maj
4B	they're	.	.	.	.	.	.	.	.	.	.
16A	do-	.	.	.	.	.	.	.	.	.	.
8.G	_	.	.	.	.	.	.	.	.	.	.
4G	-ing	.	.	.	.	.	.	.	.	.	.
=17	=17	=17	=17	=17	=17	=17	=17	=17	=17	=17	=17
*>Letter>C	*>Letter>C	*>Letter>C	*>Letter>C	*>Letter>C	*>Letter>C	*>Letter>C	*>Letter>C	*>Letter>C	*>Letter>C	*>Letter>C	*>Letter>C
*>Label>Chorus	*>Label>Chorus	*>Label>Chorus	*>Label>Chorus	*>Label>Chorus	*>Label>Chorus	*>Label>Chorus	*>Label>Chorus	*>Label>Chorus	*>Label>Chorus	*>Label>Chorus	*>Label>Chorus
2g	Hey	2cc	Hey	2c	Hey	2CM	newline	voice	B	32.102	C:maj
8f	Carr-	8cc	Carr-	8d	Carr-	2FM	.	voice	.	33.11	F:maj
4e	-ie	4g	-ie	4e	-ie	.	.	.	.	.	.
[8d	Anne	[8g	Anne	[8d	Anne	.	.	.	.	.	.
=18	=18	=18	=18	=18	=18	=18	=18	=18	=18	=18	=18
8d]	_	8g]	_	8d]	_	1GMm	.	voice	.	34.117	G:7
4e	_	4a	_	4B	_	.	.	.	.	.	.
8r	.	8r	.	8r	.	.	.	.	.	.	.
8d	what's	8d	what's	8A	what's	.	.	.	.	.	.
4e	your	4e	your	4B	your	.	.	.	.	.	.
16c	game	16g	game	16B	game	.	.	.	B	.	.
16A	_	16f	_	16A	_	.	.	.	.	.	.
=19	=19	=19	=19	=19	=19	=19	=19	=19	=19	=19	=19
[16G	_	[16e	_	[16G	_	2CM	.	voice	.	36.132	C:maj
8G]	_	8e]	_	8G]	_	.	.	.	.	.	.
[8G	now	[8e	now	[8G	now	.	.	.	.	.	.
16G]	_	16e]	_	16G]	_	.	.	.	.	.	.
8G	can	8e	can	8G	can	.	.	.	.	.	.
8.A	a-	8.f	a-	8.A	a-	2FM	.	voice	.	37.139	F:maj
16G	-ny-	16e	-ny-	16G	-ny-	.	.	.	.	.	.
16F	-bo-	16d	-bo-	16B	-bo-	.	.	.	.	.	.
16E	-dy	16c	-dy	16c	-dy	.	.	.	.	.	.
[8G	play	[8g	play	[8B	play	.	.	.	B	.	.
=20	=20	=20	=20	=20	=20	=20	=20	=20	=20	=20	=20
2G_	_	2g_	_	2B_	_	1GMm	.	voice	.	38.146	G:7
4G]	_	4g]	_	4B]	_	.	.	.	.	.	.
4r	.	4r	.	4r	.	.	.	.	.	.	.
=21	=21	=21	=21	=21	=21	=21	=21	=21	=21	=21	=21
2g	Hey	2cc	Hey	2c	Hey	2CM	newline	voice	B	40.161	C:maj
8f	Carr-	8cc	Carr-	8d	Carr-	2FM	.	voice	.	41.169	F:maj
4e	-ie	4g	-ie	4e	-ie	.	.	.	.	.	.
[8d	Anne	[8g	Anne	[8d	Anne	.	.	.	.	.	.
=22	=22	=22	=22	=22	=22	=22	=22	=22	=22	=22	=22
8d]	_	8g]	_	8d]	_	1GMm	.	voice	.	42.177	G:7
4e	_	4a	_	4B	_	.	.	.	.	.	.
8r	.	8r	.	8r	.	.	.	.	.	.	.
8d	what's	8d	what's	8A	what's	.	.	.	.	.	.
4e	your	4e	your	4B	your	.	.	.	.	.	.
16c	game	16g	game	16B	game	.	.	.	B	.	.
16A	_	16f	_	16A	_	.	.	.	.	.	.
=23	=23	=23	=23	=23	=23	=23	=23	=23	=23	=23	=23
[16G	_	[16e	_	[16G	_	2CM	.	voice	.	44.193	C:maj
8G]	_	8e]	_	8G]	_	.	.	.	.	.	.
[8G	now	[8e	now	[8G	now	.	.	.	.	.	.
16G]	_	16e]	_	16G]	_	.	.	.	.	.	.
8G	can	8e	can	8G	can	.	.	.	.	.	.
8.A	a-	8.f	a-	8.A	a-	2FM	.	voice	.	45.201	F:maj
16G	-ny-	16e	-ny-	16G	-ny-	.	.	.	.	.	.
16F	-bo-	16d	-bo-	16B	-bo-	.	.	.	.	.	.
16E	-dy	16c	-dy	16c	-dy	.	.	.	.	.	.
[8G	play	[8g	play	[8B	play	.	.	.	B	.	.
=24	=24	=24	=24	=24	=24	=24	=24	=24	=24	=24	=24
1G]	_	1g]	_	1B]	_	1GMm	.	voice	.	46.209	G:7
=25	=25	=25	=25	=25	=25	=25	=25	=25	=25	=25	=25
*>Letter>B	*>Letter>B	*>Letter>B	*>Letter>B	*>Letter>B	*>Letter>B	*>Letter>B	*>Letter>B	*>Letter>B	*>Letter>B	*>Letter>B	*>Letter>B
*>Label>Verse	*>Label>Verse	*>Label>Verse	*>Label>Verse	*>Label>Verse	*>Label>Verse	*>Label>Verse	*>Label>Verse	*>Label>Verse	*>Label>Verse	*>Label>Verse	*>Label>Verse
8g	You	1r	.	1r	.	2CM	newline	voice	.	48.225	C:maj
8g	were	.	.	.	.	.	.	.	.	.	.
8f	al-	.	.	.	.	.	.	.	.	.	.
8e	-ways	.	.	.	.	.	.	.	.	.	.
4d	some-	.	.	.	.	2FM	.	voice	.	49.222	F:maj
4c	-thing	.	.	.	.	.	.	.	.	.	.
=26	=26	=26	=26	=26	=26	=26	=26	=26	=26	=26	=26
4G	spe-	1r	.	1r	.	2CM	.	voice	.	50.219	C:maj
4c	-cial	.	.	.	.	.	.	.	.	.	.
4A	to	.	.	.	.	2FM	.	voice	.	51.216	F:maj
8c	me	.	.	.	.	.	.	.	.	.	.
8r	.	.	.	.	.	.	.	.	.	.	.
=27	=27	=27	=27	=27	=27	=27	=27	=27	=27	=27	=27
4G	quite	1r	.	1r	.	.	.	.	.	.	.
8A	in-	.	.	.	.	2CM	.	voice	.	52.213	C:maj
8c	-de-	.	.	.	.	.	.	.	.	.	.
4e	-pen-	.	.	.	.	2FM	.	voice	.	53.21	F:maj
8d	-dent	.	.	.	.	.	.	.	.	.	.
8r	.	.	.	.	.	.	.	.	.	.	.
=28	=28	=28	=28	=28	=28	=28	=28	=28	=28	=28	=28
4r	.	1r	.	1r	.	2CM	.	voice	.	54.207	C:maj
8A	ne-	.	.	.	.	.	.	.	.	.	.
8c	-ver	.	.	.	.	.	.	.	.	.	.
8A	car-	.	.	.	.	2FM	.	voice	.	55.204	F:maj
8G	_	.	.	.	.	.	.	.	.	.	.
8G	-ing	.	.	.	.	.	.	.	.	.	.
8r	.	.	.	.	.	.	.	.	.	.	.
=29	=29	=29	=29	=29	=29	=29	=29	=29	=29	=29	=29
4g	You	1r	.	1r	.	2CM	newline	voice	.	56.201	C:maj
8f	lost	.	.	.	.	.	.	.	.	.	.
8e	your	.	.	.	.	.	.	.	.	.	.
4d	charm	.	.	.	.	2FM	.	voice	.	57.203	F:maj
4c	as	.	.	.	.	.	.	.	.	.	.
=30	=30	=30	=30	=30	=30	=30	=30	=30	=30	=30	=30
4G	you	1r	.	1r	.	2CM	.	voice	.	58.204	C:maj
4c	were	.	.	.	.	.	.	.	.	.	.
4A	ag-	.	.	.	.	2FM	.	voice	.	59.206	F:maj
8c	-ing	.	.	.	.	.	.	.	.	.	.
8r	.	.	.	.	.	.	.	.	.	.	.
=31	=31	=31	=31	=31	=31	=31	=31	=31	=31	=31	=31
4G	where	1r	.	1r	.	2CM	.	voice	.	60.208	C:maj
8A	is	.	.	.	.	.	.	.	.	.	.
8c	your	.	.	.	.	.	.	.	.	.	.
4e	ma-	.	.	.	.	2FM	.	voice	.	61.209	F:maj
4d	-gic	.	.	.	.	.	.	.	.	.	.
=32	=32	=32	=32	=32	=32	=32	=32	=32	=32	=32	=32
4c	dis-	1r	.	1r	.	1GM	.	voice	.	62.211	G:maj
4B	-a-	.	.	.	.	.	.	.	.	.	.
16A	-pear-	.	.	.	.	.	.	.	.	.	.
8.G	_	.	.	.	.	.	.	.	.	.	.
4G	-ing	.	.	.	.	.	.	.	.	.	.
=33	=33	=33	=33	=33	=33	=33	=33	=33	=33	=33	=33
*>Letter>C	*>Letter>C	*>Letter>C	*>Letter>C	*>Letter>C	*>Letter>C	*>Letter>C	*>Letter>C	*>Letter>C	*>Letter>C	*>Letter>C	*>Letter>C
*>Label>Chorus	*>Label>Chorus	*>Label>Chorus	*>Label>Chorus	*>Label>Chorus	*>Label>Chorus	*>Label>Chorus	*>Label>Chorus	*>Label>Chorus	*>Label>Chorus	*>Label>Chorus	*>Label>Chorus
2g	Hey	2cc	Hey	2c	Hey	2CM	newline	voice	B	64.214	C:maj
8f	Carr-	8cc	Carr-	8d	Carr-	2FM	.	voice	.	65.231	F:maj
4e	-ie	4g	-ie	4e	-ie	.	.	.	.	.	.
[8d	Anne	[8g	Anne	[8d	Anne	.	.	.	.	.	.
=34	=34	=34	=34	=34	=34	=34	=34	=34	=34	=34	=34
8d]	_	8g]	_	8d]	_	1GMm	.	voice	.	66.248	G:7
4e	_	4a	_	4B	_	.	.	.	.	.	.
8r	.	8r	.	8r	.	.	.	.	.	.	.
8d	what's	8d	what's	8A	what's	.	.	.	.	.	.
4e	your	4e	your	4B	your	.	.	.	.	.	.
16c	game	16g	game	16B	game	.	.	.	B	.	.
16A	_	16f	_	16A	_	.	.	.	.	.	.
=35	=35	=35	=35	=35	=35	=35	=35	=35	=35	=35	=35
[16G	_	[16e	_	[16G	_	2CM	.	voice	.	68.281	C:maj
8G]	_	8e]	_	8G]	_	.	.	.	.	.	.
[8G	now	[8e	now	[8G	now	.	.	.	.	.	.
16G]	_	16e]	_	16G]	_	.	.	.	.	.	.
8G	can	8e	can	8G	can	.	.	.	.	.	.
8.A	a-	8.f	a-	8.A	a-	2FM	.	voice	.	69.298	F:maj
16G	-ny-	16e	-ny-	16G	-ny-	.	.	.	.	.	.
16F	-bo-	16d	-bo-	16B	-bo-	.	.	.	.	.	.
16E	-dy	16c	-dy	16c	-dy	.	.	.	.	.	.
[8G	play	[8g	play	[8B	play	.	.	.	B	.	.
=36	=36	=36	=36	=36	=36	=36	=36	=36	=36	=36	=36
2G_	_	2g_	_	2B_	_	1GMm	.	voice	.	70.314	G:7
4G]	_	4g]	_	4B]	_	.	.	.	.	.	.
4r	.	4r	.	4r	.	.	.	.	.	.	.
=37	=37	=37	=37	=37	=37	=37	=37	=37	=37	=37	=37
2g	Hey	2cc	Hey	2c	Hey	2CM	newline	voice	B	72.347	C:maj
8f	Carr-	8cc	Carr-	8d	Carr-	2FM	.	voice	.	73.36	F:maj
4e	-ie	4g	-ie	4e	-ie	.	.	.	.	.	.
[8d	Anne	[8g	Anne	[8d	Anne	.	.	.	.	.	.
=38	=38	=38	=38	=38	=38	=38	=38	=38	=38	=38	=38
8d]	_	8g]	_	8d]	_	1GMm	.	voice	.	74.373	G:7
4e	_	4a	_	4B	_	.	.	.	.	.	.
8r	.	8r	.	8r	.	.	.	.	.	.	.
8d	what's	8d	what's	8A	what's	.	.	.	.	.	.
4e	your	4e	your	4B	your	.	.	.	.	.	.
16c	game	16g	game	16B	game	.	.	.	B	.	.
16A	_	16f	_	16A	_	.	.	.	.	.	.
=39	=39	=39	=39	=39	=39	=39	=39	=39	=39	=39	=39
[16G	_	[16e	_	[16G	_	2CM	.	voice	.	76.398	C:maj
8G]	_	8e]	_	8G]	_	.	.	.	.	.	.
[8G	now	[8e	now	[8G	now	.	.	.	.	.	.
16G]	_	16e]	_	16G]	_	.	.	.	.	.	.
8G	can	8e	can	8G	can	.	.	.	.	.	.
8.A	a-	8.f	a-	8.A	a-	2FM	.	voice	.	77.411	F:maj
16G	-ny-	16e	-ny-	16G	-ny-	.	.	.	.	.	.
16F	-bo-	16d	-bo-	16B	-bo-	.	.	.	.	.	.
16E	-dy	16c	-dy	16c	-dy	.	.	.	.	.	.
[8G	play	[8g	play	[8B	play	.	.	.	B	.	.
=40	=40	=40	=40	=40	=40	=40	=40	=40	=40	=40	=40
2G_	_	2.g]	_	2.B]	_	1GMm	.	voice	.	78.423	G:7
4G]	_	.	.	.	.	.	.	.	.	.	.
8g	You're	4r	.	4r	.	.	.	.	.	.	.
[8a	so	.	.	.	.	.	.	.	.	.	.
=41	=41	=41	=41	=41	=41	=41	=41	=41	=41	=41	=41
*>Letter>D	*>Letter>D	*>Letter>D	*>Letter>D	*>Letter>D	*>Letter>D	*>Letter>D	*>Letter>D	*>Letter>D	*>Letter>D	*>Letter>D	*>Letter>D
*>Label>Bridge	*>Label>Bridge	*>Label>Bridge	*>Label>Bridge	*>Label>Bridge	*>Label>Bridge	*>Label>Bridge	*>Label>Bridge	*>Label>Bridge	*>Label>Bridge	*>Label>Bridge	*>Label>Bridge
8a_	_	1r	.	1r	.	1FM	newline	voice	.	80.448	F:maj
16a]	_	.	.	.	.	.	.	.	.	.	.
16r	.	.	.	.	.	.	.	.	.	.	.
8r	.	.	.	.	.	.	.	.	.	.	.
2r	.	.	.	.	.	.	.	.	.	.	.
[8a	so	.	.	.	.	.	.	.	.	.	.
=42	=42	=42	=42	=42	=42	=42	=42	=42	=42	=42	=42
4a]	_	1r	.	1r	.	1FM	.	voice	.	82.473	F:maj
8g	like	.	.	.	.	.	.	.	.	.	.
8f	a	.	.	.	.	.	.	.	.	.	.
8e	wo-	.	.	.	.	.	.	.	.	.	.
8d	-man	.	.	.	.	.	.	.	.	.	.
8e	to	.	.	.	.	.	.	.	.	.	.
[8f	me	.	.	.	.	.	.	.	.	.	.
=43	=43	=43	=43	=43	=43	=43	=43	=43	=43	=43	=43
1f_	_	8r	.	8r	.	1B-M	.	voice	.	84.497	B-:maj
.	.	8b-	so	8f	so	.	.	.	.	.	.
.	.	8b-	like	8f	like	.	.	.	.	.	.
.	.	8b-	a	8f	a	.	.	.	.	.	.
.	.	8b-	wo-	8f	wo-	.	.	.	.	.	.
.	.	8a	-man	8f	-man	.	.	.	.	.	.
.	.	8g	to	8e	to	.	.	.	.	.	.
.	.	[8cc	me	[8f	me	.	.	.	.	.	.
=44	=44	=44	=44	=44	=44	=44	=44	=44	=44	=44	=44
2.f]	_	2.cc]	_	2.f]	_	1FM	.	voice	.	86.521	F:maj
8r	.	4r	.	4r	.	.	.	.	.	.	.
[8a	So	.	.	.	.	.	.	.	.	.	.
=45	=45	=45	=45	=45	=45	=45	=45	=45	=45	=45	=45
8a]	_	4r	.	4r	.	1FM	newline	voice	.	88.545	F:maj
4r	.	.	.	.	.	.	.	.	.	.	.
.	.	4a	so	4f	so	.	.	.	.	.	.
2r	.	.	.	.	.	.	.	.	.	.	.
.	.	2r	.	2r	.	.	.	.	.	.	.
[8a	so	.	.	.	.	.	.	.	.	.	.
=46	=46	=46	=46	=46	=46	=46	=46	=46	=46	=46	=46
4a]	_	4r	.	4r	.	1FM	.	voice	.	90.54	F:maj
8g	like	4a	so	4f	so	.	.	.	.	.	.
8f	a	.	.	.	.	.	.	.	.	.	.
8e	wo-	2r	.	2r	.	.	.	.	.	.	.
8d	-man	.	.	.	.	.	.	.	.	.	.
8e	to	.	.	.	.	.	.	.	.	.	.
[8f	me	.	.	.	.	.	.	.	.	.	.
=47	=47	=47	=47	=47	=47	=47	=47	=47	=47	=47	=47
1f]	_	4r	.	4r	.	1B-M	.	voice	.	92.534	B-:maj
.	.	8b-	like	8f	like	.	.	.	.	.	.
.	.	8b-	a	8f	a	.	.	.	.	.	.
.	.	8b-	wo-	8f	wo-	.	.	.	.	.	.
.	.	8a	-man	8f	-man	.	.	.	.	.	.
.	.	8g	to	8f	to	.	.	.	.	.	.
.	.	[8cc	me	[8e	me	.	.	.	.	.	.
=48	=48	=48	=48	=48	=48	=48	=48	=48	=48	=48	=48
[1g	_	4.cc]	_	8e_	_	1GM	.	voice	.	94.529	G:maj
.	.	.	.	2.e]	_	.	.	.	.	.	.
.	.	2b	_	.	.	.	.	.	.	.	.
.	.	[8a	_	[8c	_	.	.	.	.	.	.
=49	=49	=49	=49	=49	=49	=49	=49	=49	=49	=49	=49
1g_	_	4.a]	_	1c_	_	1GM	.	voice	.	96.523	G:maj
.	.	2b	_	.	.	.	.	.	.	.	.
.	.	[8cc	_	.	.	.	.	.	.	.	.
=50	=50	=50	=50	=50	=50	=50	=50	=50	=50	=50	=50
*>Letter>B	*>Letter>B	*>Letter>B	*>Letter>B	*>Letter>B	*>Letter>B	*>Letter>B	*>Letter>B	*>Letter>B	*>Letter>B	*>Letter>B	*>Letter>B
*>Label>Solo	*>Label>Solo	*>Label>Solo	*>Label>Solo	*>Label>Solo	*>Label>Solo	*>Label>Solo	*>Label>Solo	*>Label>Solo	*>Label>Solo	*>Label>Solo	*>Label>Solo
8g]	_	8cc]	_	8c]	_	2CM	newline	steel pans	.	98.517	C:maj
8r	.	8r	.	8r	.	.	.	.	.	.	.
4r	.	4r	.	4r	.	.	.	.	.	.	.
2r	.	2r	.	2r	.	2FM	.	steel pans	.	99.516	F:maj
=51	=51	=51	=51	=51	=51	=51	=51	=51	=51	=51	=51
1r	.	1r	.	1r	.	2CM	.	steel pans	.	100.515	C:maj
.	.	.	.	.	.	2FM	.	steel pans	.	101.514	F:maj
=52	=52	=52	=52	=52	=52	=52	=52	=52	=52	=52	=52
1r	.	1r	.	1r	.	2CM	.	steel pans	.	102.512	C:maj
.	.	.	.	.	.	2FM	.	steel pans	.	103.511	F:maj
=53	=53	=53	=53	=53	=53	=53	=53	=53	=53	=53	=53
1r	.	1r	.	1r	.	2CM	.	steel pans	.	104.51	C:maj
.	.	.	.	.	.	2FM	.	steel pans	.	105.509	F:maj
=54	=54	=54	=54	=54	=54	=54	=54	=54	=54	=54	=54
1r	.	1r	.	1r	.	2CM	newline	steel pans	.	106.507	C:maj
.	.	.	.	.	.	2FM	.	steel pans	.	107.517	F:maj
=55	=55	=55	=55	=55	=55	=55	=55	=55	=55	=55	=55
1r	.	1r	.	1r	.	2CM	.	steel pans	.	108.527	C:maj
.	.	.	.	.	.	2FM	.	steel pans	.	109.537	F:maj
=56	=56	=56	=56	=56	=56	=56	=56	=56	=56	=56	=56
1r	.	1r	.	1r	.	2CM	.	steel pans	.	110.548	C:maj
.	.	.	.	.	.	2FM	.	steel pans	.	111.558	F:maj
=57	=57	=57	=57	=57	=57	=57	=57	=57	=57	=57	=57
1r	.	1r	.	1r	.	1GM	.	steel pans	.	112.568	G:maj
=58	=58	=58	=58	=58	=58	=58	=58	=58	=58	=58	=58
*>Letter>C	*>Letter>C	*>Letter>C	*>Letter>C	*>Letter>C	*>Letter>C	*>Letter>C	*>Letter>C	*>Letter>C	*>Letter>C	*>Letter>C	*>Letter>C
*>Label>Chorus	*>Label>Chorus	*>Label>Chorus	*>Label>Chorus	*>Label>Chorus	*>Label>Chorus	*>Label>Chorus	*>Label>Chorus	*>Label>Chorus	*>Label>Chorus	*>Label>Chorus	*>Label>Chorus
2a	Hey	2cc	Hey	2c	Hey	2CM	newline	voice	B	114.588	C:maj
8g	Carr-	8cc	Carr-	8d	Carr-	2FM	.	voice	.	115.616	F:maj
4e	-ie	4g	-ie	4e	-ie	.	.	.	.	.	.
[8d	Anne	[8g	Anne	[8d	Anne	.	.	.	.	.	.
=59	=59	=59	=59	=59	=59	=59	=59	=59	=59	=59	=59
8d]	_	8g]	_	8d]	_	1GMm	.	voice	.	116.644	G:7
4e	_	4a	_	4B	_	.	.	.	.	.	.
8r	.	8r	.	8r	.	.	.	.	.	.	.
8d	what's	8d	what's	8A	what's	.	.	.	.	.	.
4e	your	4e	your	4B	your	.	.	.	.	.	.
16c	game	16g	game	16B	game	.	.	.	B	.	.
16A	_	16f	_	16A	_	.	.	.	.	.	.
=60	=60	=60	=60	=60	=60	=60	=60	=60	=60	=60	=60
[16G	_	[16e	_	[16G	_	2CM	.	voice	.	118.7	C:maj
8G]	_	8e]	_	8G]	_	.	.	.	.	.	.
[8G	now	[8e	now	[8G	now	.	.	.	.	.	.
16G]	_	16e]	_	16G]	_	.	.	.	.	.	.
8G	can	8e	can	8G	can	.	.	.	.	.	.
8.A	a-	8.f	a-	8.A	a-	2FM	.	voice	.	119.728	F:maj
16G	-ny-	16e	-ny-	16G	-ny-	.	.	.	.	.	.
16F	-bo-	16d	-bo-	16B	-bo-	.	.	.	.	.	.
16E	-dy	16c	-dy	16c	-dy	.	.	.	.	.	.
[8G	play	[8g	play	[8B	play	.	.	.	B	.	.
=61	=61	=61	=61	=61	=61	=61	=61	=61	=61	=61	=61
2G_	_	2g_	_	2B_	_	1GMm	.	voice	.	120.756	G:7
4G]	_	4g]	_	4B]	_	.	.	.	.	.	.
4r	.	4r	.	4r	.	.	.	.	.	.	.
=62	=62	=62	=62	=62	=62	=62	=62	=62	=62	=62	=62
2g	Hey	2cc	Hey	2c	Hey	2CM	newline	voice	B	122.812	C:maj
8f	Carr-	8cc	Carr-	8d	Carr-	2FM	.	voice	.	123.833	F:maj
4e	-ie	4g	-ie	4e	-ie	.	.	.	.	.	.
[8d	Anne	[8g	Anne	[8d	Anne	.	.	.	.	.	.
=63	=63	=63	=63	=63	=63	=63	=63	=63	=63	=63	=63
8d]	_	8g]	_	8d]	_	1GMm	.	voice	.	124.854	G:7
4e	_	4a	_	4B	_	.	.	.	.	.	.
8r	.	8r	.	8r	.	.	.	.	.	.	.
8d	what's	8d	what's	8A	what's	.	.	.	.	.	.
4e	your	4e	your	4B	your	.	.	.	.	.	.
16c	game	16g	game	16B	game	.	.	.	B	.	.
16A	_	16f	_	16A	_	.	.	.	.	.	.
=64	=64	=64	=64	=64	=64	=64	=64	=64	=64	=64	=64
[16G	_	[16e	_	[16G	_	2CM	.	voice	.	126.897	C:maj
8G]	_	8e]	_	8G]	_	.	.	.	.	.	.
[8G	now	[8e	now	[8G	now	.	.	.	.	.	.
16G]	_	16e]	_	16G]	_	.	.	.	.	.	.
8G	can	8e	can	8G	can	.	.	.	.	.	.
8.A	a-	8.f	a-	8.A	a-	2FM	.	voice	.	127.919	F:maj
16G	-ny-	16e	-ny-	16G	-ny-	.	.	.	.	.	.
16F	-bo-	16d	-bo-	16B	-bo-	.	.	.	.	.	.
16E	-dy	16c	-dy	16c	-dy	.	.	.	.	.	.
[8G	play	[8g	play	[8B	play	.	.	.	B	.	.
=65	=65	=65	=65	=65	=65	=65	=65	=65	=65	=65	=65
2G_	_	2g_	_	2B_	_	1GMm	.	voice	.	128.94	G:7
4G]	_	4g]	_	4B]	_	.	.	.	.	.	.
4r	.	4r	.	4r	.	.	.	.	.	.	.
=66	=66	=66	=66	=66	=66	=66	=66	=66	=66	=66	=66
*>Letter>B	*>Letter>B	*>Letter>B	*>Letter>B	*>Letter>B	*>Letter>B	*>Letter>B	*>Letter>B	*>Letter>B	*>Letter>B	*>Letter>B	*>Letter>B
*>Label>Verse	*>Label>Verse	*>Label>Verse	*>Label>Verse	*>Label>Verse	*>Label>Verse	*>Label>Verse	*>Label>Verse	*>Label>Verse	*>Label>Verse	*>Label>Verse	*>Label>Verse
8g	Peo-	1r	.	1r	.	2CM	newline	voice	.	130.983	C:maj
8g	-ple	.	.	.	.	.	.	.	.	.	.
8f	live	.	.	.	.	.	.	.	.	.	.
8e	and	.	.	.	.	.	.	.	.	.	.
4d	learn	.	.	.	.	2FM	.	voice	A	131.985	F:maj
4c	but	.	.	.	.	.	.	.	.	.	.
=67	=67	=67	=67	=67	=67	=67	=67	=67	=67	=67	=67
4G	you're	1r	.	1r	.	2CM	.	voice	.	132.987	C:maj
4c	still	.	.	.	.	.	.	.	.	.	.
4A	learn-	.	.	.	.	2FM	.	voice	(A	133.988	F:maj
8c	-ing	.	.	.	.	.	.	.	a)	.	.
8r	.	.	.	.	.	.	.	.	.	.	.
=68	=68	=68	=68	=68	=68	=68	=68	=68	=68	=68	=68
4G	you	1r	.	1r	.	2CM	.	voice	.	134.99	C:maj
8A	use	.	.	.	.	.	.	.	.	.	.
8c	my	.	.	.	.	.	.	.	.	.	.
4e	mind	.	.	.	.	2FM	.	voice	.	135.992	F:maj
8d	and	.	.	.	.	.	.	.	.	.	.
8r	.	.	.	.	.	.	.	.	.	.	.
=69	=69	=69	=69	=69	=69	=69	=69	=69	=69	=69	=69
4G	I'll	1r	.	1r	.	2CM	.	voice	.	136.993	C:maj
8A	be	.	.	.	.	.	.	.	.	.	.
8c	your	.	.	.	.	.	.	.	.	.	.
4A	tea-	.	.	.	.	2FM	.	voice	.	137.995	F:maj
8G	-cher	.	.	.	.	.	.	.	A	.	.
8r	.	.	.	.	.	.	.	.	.	.	.
=70	=70	=70	=70	=70	=70	=70	=70	=70	=70	=70	=70
8g	When	1r	.	1r	.	2CM	newline	voice	.	138.997	C:maj
8g	the	.	.	.	.	.	.	.	.	.	.
8f	les-	.	.	.	.	.	.	.	.	.	.
8e	-son's	.	.	.	.	.	.	.	.	.	.
4d	o-	.	.	.	.	2FM	.	voice	.	139.992	F:maj
4c	-ver	.	.	.	.	.	.	.	A	.	.
=71	=71	=71	=71	=71	=71	=71	=71	=71	=71	=71	=71
4G	you'll	1r	.	1r	.	2CM	.	voice	.	140.988	C:maj
4c	be	.	.	.	.	.	.	.	.	.	.
4A	with	.	.	.	.	2FM	.	voice	.	141.984	F:maj
8c	me	.	.	.	.	.	.	.	.	.	.
8r	.	.	.	.	.	.	.	.	.	.	.
=72	=72	=72	=72	=72	=72	=72	=72	=72	=72	=72	=72
8G	then	1r	.	1r	.	2CM	.	voice	.	142.98	C:maj
8G	I'll	.	.	.	.	.	.	.	.	.	.
8A	hear	.	.	.	.	.	.	.	.	.	.
8c	the	.	.	.	.	.	.	.	.	.	.
4e	o-	.	.	.	.	2FM	.	voice	.	143.975	F:maj
4d	-ther	.	.	.	.	.	.	.	A	.	.
=73	=73	=73	=73	=73	=73	=73	=73	=73	=73	=73	=73
4c	peo-	1r	.	1r	.	1GM	.	voice	.	144.971	G:maj
4B	-ple	.	.	.	.	.	.	.	.	.	.
16A	say-	.	.	.	.	.	.	.	B	.	.
8.G	_	.	.	.	.	.	.	.	.	.	.
4G	-ing	.	.	.	.	.	.	.	.	.	.
=74	=74	=74	=74	=74	=74	=74	=74	=74	=74	=74	=74
*>Letter>C	*>Letter>C	*>Letter>C	*>Letter>C	*>Letter>C	*>Letter>C	*>Letter>C	*>Letter>C	*>Letter>C	*>Letter>C	*>Letter>C	*>Letter>C
*>Label>Chorus	*>Label>Chorus	*>Label>Chorus	*>Label>Chorus	*>Label>Chorus	*>Label>Chorus	*>Label>Chorus	*>Label>Chorus	*>Label>Chorus	*>Label>Chorus	*>Label>Chorus	*>Label>Chorus
2g	Hey	2cc	Hey	2c	Hey	2CM	newline	voice	B	146.962	C:maj
8f	Carr-	8cc	Carr-	8d	Carr-	2FM	.	voice	.	147.971	F:maj
4e	-ie	4g	-ie	4e	-ie	.	.	.	.	.	.
[8d	Anne	[8g	Anne	[8d	Anne	.	.	.	.	.	.
=75	=75	=75	=75	=75	=75	=75	=75	=75	=75	=75	=75
8d]	_	8g]	_	8d]	_	1GMm	.	voice	.	148.98	G:7
4e	_	4a	_	4B	_	.	.	.	.	.	.
8r	.	8r	.	8r	.	.	.	.	.	.	.
8d	what's	8d	what's	8A	what's	.	.	.	.	.	.
4e	your	4e	your	4B	your	.	.	.	.	.	.
16c	game	16g	game	16B	game	.	.	.	B	.	.
16A	_	16f	_	16A	_	.	.	.	.	.	.
=76	=76	=76	=76	=76	=76	=76	=76	=76	=76	=76	=76
[16G	_	[16e	_	[16G	_	2CM	.	voice	.	150.999	C:maj
8G]	_	8e]	_	8G]	_	.	.	.	.	.	.
[8G	now	[8e	now	[8G	now	.	.	.	.	.	.
16G]	_	16e]	_	16G]	_	.	.	.	.	.	.
8G	can	8e	can	8G	can	.	.	.	.	.	.
8.A	a-	8.f	a-	8.A	a-	2FM	.	voice	.	152.008	F:maj
16G	-ny-	16e	-ny-	16G	-ny-	.	.	.	.	.	.
16F	-bo-	16d	-bo-	16B	-bo-	.	.	.	.	.	.
16E	-dy	16c	-dy	16c	-dy	.	.	.	.	.	.
[8G	play	[8g	play	[8B	play	.	.	.	B	.	.
=77	=77	=77	=77	=77	=77	=77	=77	=77	=77	=77	=77
2G_	_	2g_	_	2B_	_	1GMm	.	voice	.	153.017	G:7
4G]	_	4g]	_	4B]	_	.	.	.	.	.	.
4r	.	4r	.	4r	.	.	.	.	.	.	.
=78	=78	=78	=78	=78	=78	=78	=78	=78	=78	=78	=78
2g	Hey	2cc	Hey	2c	Hey	2CM	newline	voice	B	155.035	C:maj
8f	Carr-	8cc	Carr-	8d	Carr-	2FM	.	voice	.	156.044	F:maj
4e	-ie	4g	-ie	4e	-ie	.	.	.	.	.	.
[8d	Anne	[8g	Anne	[8d	Anne	.	.	.	.	.	.
=79	=79	=79	=79	=79	=79	=79	=79	=79	=79	=79	=79
8d]	_	8g]	_	8d]	_	1GMm	.	voice	.	157.053	G:7
4e	_	4a	_	4B	_	.	.	.	.	.	.
8r	.	8r	.	8r	.	.	.	.	.	.	.
8d	what's	8d	what's	8A	what's	.	.	.	.	.	.
4e	your	4e	your	4B	your	.	.	.	.	.	.
16c	game	16g	game	16B	game	.	.	.	B	.	.
16A	_	16f	_	16A	_	.	.	.	.	.	.
=80	=80	=80	=80	=80	=80	=80	=80	=80	=80	=80	=80
[16G	_	[16e	_	[16G	_	2CM	.	voice	.	159.071	C:maj
8G]	_	8e]	_	8G]	_	.	.	.	.	.	.
[8G	now	[8e	now	[8G	now	.	.	.	.	.	.
16G]	_	16e]	_	16G]	_	.	.	.	.	.	.
8G	can	8e	can	8G	can	.	.	.	.	.	.
8.A	a-	8.f	a-	8.A	a-	2FM	.	voice	.	160.08	F:maj
16G	-ny-	16e	-ny-	16G	-ny-	.	.	.	.	.	.
16F	-bo-	16d	-bo-	16B	-bo-	.	.	.	.	.	.
16E	-dy	16c	-dy	16c	-dy	.	.	.	.	.	.
[8G	play	[8g	play	[8B	play	.	.	.	B	.	.
=81	=81	=81	=81	=81	=81	=81	=81	=81	=81	=81	=81
1G]	_	1g]	_	1B]	_	1GMm	.	voice	.	161.089	G:7
=82	=82	=82	=82	=82	=82	=82	=82	=82	=82	=82	=82
*>Letter>E	*>Letter>E	*>Letter>E	*>Letter>E	*>Letter>E	*>Letter>E	*>Letter>E	*>Letter>E	*>Letter>E	*>Letter>E	*>Letter>E	*>Letter>E
*>Label>Outro	*>Label>Outro	*>Label>Outro	*>Label>Outro	*>Label>Outro	*>Label>Outro	*>Label>Outro	*>Label>Outro	*>Label>Outro	*>Label>Outro	*>Label>Outro	*>Label>Outro
4r	.	2r	.	2r	.	1FM	newline	voice	.	163.108	F:maj
2r	.	.	.	.	.	.	.	.	.	.	.
.	.	4r	.	4r	.	.	.	.	.	.	.
8c	Carr-	4r	.	4r	.	.	.	.	.	.	.
8c	-ie	.	.	.	.	.	.	.	.	.	.
=83	=83	=83	=83	=83	=83	=83	=83	=83	=83	=83	=83
1c	Anne	4r	.	4r	.	1CM	.	voice	.	165.129	C:maj/3
.	.	8g	Carr-	8e	Carr-	.	.	.	.	.	.
.	.	8g	-ie	8e	-ie	.	.	.	.	.	.
.	.	[2g	Anne	4e	Anne	.	.	.	.	.	.
.	.	.	.	[4g	_	.	.	.	.	.	.
=84	=84	=84	=84	=84	=84	=84	=84	=84	=84	=84	=84
1d	_	4g]	_	1g_	_	1GMm	.	voice	.	167.15	G:7/5
.	.	8cc	Carr-	.	.	.	.	.	.	.	.
.	.	8cc	-ie	.	.	.	.	.	.	.	.
.	.	8b	Anne	.	.	.	.	.	.	.	.
.	.	8a	_	.	.	.	.	.	.	.	.
.	.	4b	_	.	.	.	.	.	.	.	.
=85	=85	=85	=85	=85	=85	=85	=85	=85	=85	=85	=85
1c	_	1cc	_	1g]	_	1CM	.	voice	.	169.171	C:maj
r;	.	r;	.	r;	.	1r;	.	r	.	172.456	N.C.
r;	.	r;	.	r;	.	1r;	.	r	.	175.384	N.C.
*-	*-	*-	*-	*-	*-	*-	*-	*-	*-	*-	*-
!!!BillboardChartDate: 1967/08/26
!!!BillboardPeak: 9
!!!BillboardWeeksOnChart: 13
!!!COC: The Hollies
!!!ENC: Nathaniel Condit-Schultz
!!!EST: Awating manual error checking and editing.
!!!OTL: Carrie-Anne
!!!RDF**chordsym: original McGill chord annotation + (implied pitch class set, with bass pitch in first position)
!!!RDF**harmony: **recip + pitch class of root + harmonic quality
!!!RDF**leadinstrument: original McGill primary instrumentation annotation
!!!RDF**phrase: newline = linebreak in original McGill transcription
!!!RDF**timestamp: McGill audio timestamp in seconds
!!!RDT: 2017/01/12/
!!!SampleActualRank: 18
!!!SampleID#: 0477
!!!SampleTargetRank: 18
